X:3924
L:1/8
Q:1/4=120
M:6/8
K:A
"^Very Quick"{EFG} A2 a ecA |{c} BAB dcB | A2 a ecA | BAB cAF | A2 a ecA | BAB cde | (fa)f edc | 
 BAB cAF :: (ac')a (gb)g | faf efg | aga bc'd' | c'd'c' bge | aca gag | faf efg | agf edc | 
 BAB cAF :|

